; generated by Slic3r 1.3.1-dev on 2020-06-06 at 14:25:27

; Print Config Notes: 
; DMF_3D_0.2mm333HC25%
; 
; Filament notes: 
; DMF_3D_1.75x1.00NatPETG250 B95
; 
; Printer Config Notes: 
; DMF_3D3
; 
; external perimeters extrusion width = 0.36mm (1.90mm^3/s)
; perimeters extrusion width = 0.32mm (1.66mm^3/s)
; infill extrusion width = 0.48mm (4.37mm^3/s)
; solid infill extrusion width = 0.34mm (2.97mm^3/s)
; top infill extrusion width = 0.32mm (2.22mm^3/s)

M190 S95 ; set bed temperature and wait for it to be reached
M104 S250 ; set temperature
G28 ; home all axes
; Filament gcode

M109 S250 ; set temperature and wait for it to be reached
G21 ; set units to millimeters
G90 ; use absolute coordinates
M82 ; use absolute distances for extrusion
G92 E0
G1 Z0.300 F3600.000
G1 E-0.60000 F900.00000
G92 E0
G1 X63.324 Y74.634 F3600.000
G1 E0.65000 F900.00000
G1 F1200
G1 X64.108 Y74.021 E0.70154
G1 X64.650 Y73.670 E0.73503
G1 X65.481 Y73.228 E0.78383
G1 X66.074 Y72.976 E0.81721
G1 X66.709 Y72.758 E0.85205
G1 X67.650 Y72.524 E0.90227
G1 X68.580 Y72.393 E0.95099
G1 X69.225 Y72.359 E0.98449
G1 X180.774 Y72.359 E6.76700
G1 X181.420 Y72.393 E6.80049
G1 X182.060 Y72.473 E6.83393
G1 X182.692 Y72.597 E6.86732
G1 X183.316 Y72.765 E6.90081
G1 X183.926 Y72.976 E6.93430
G1 X184.518 Y73.228 E6.96767
G1 X185.095 Y73.523 E7.00122
G1 X185.892 Y74.021 E7.04996
G1 X186.408 Y74.409 E7.08343
G1 X186.896 Y74.832 E7.11689
G1 X187.587 Y75.547 E7.16844
G1 X187.991 Y76.048 E7.20184
G1 X188.361 Y76.578 E7.23533
G1 X188.692 Y77.131 E7.26875
G1 X188.985 Y77.707 E7.30224
G1 X189.247 Y78.329 E7.33723
G1 X192.458 Y86.464 E7.79060
G1 X192.605 Y86.949 E7.81686
G1 X192.717 Y87.440 E7.84297
G1 X192.794 Y87.941 E7.86921
G1 X192.837 Y88.445 E7.89546
G1 X192.847 Y158.396 E11.52162
G1 X192.816 Y159.050 E11.55553
G1 X192.753 Y159.552 E11.58177
G1 X192.655 Y160.046 E11.60788
G1 X192.523 Y160.535 E11.63414
G1 X192.356 Y161.015 E11.66046
G1 X192.158 Y161.478 E11.68661
G1 X191.927 Y161.928 E11.71279
G1 X191.549 Y162.533 E11.74980
G1 X191.054 Y163.167 E11.79145
G1 X190.557 Y163.681 E11.82854
G1 X190.177 Y164.014 E11.85472
G1 X189.774 Y164.319 E11.88093
G1 X189.094 Y164.744 E11.92253
G1 X188.645 Y164.971 E11.94860
G1 X188.176 Y165.169 E11.97494
G1 X187.496 Y165.390 E12.01203
G1 X187.003 Y165.505 E12.03828
G1 X186.506 Y165.585 E12.06438
G1 X185.705 Y165.641 E12.10601
G1 X64.295 Y165.641 E18.39968
G1 X63.790 Y165.617 E18.42589
G1 X63.287 Y165.556 E18.45218
G1 X62.504 Y165.390 E18.49366
G1 X62.020 Y165.240 E18.51991
G1 X61.548 Y165.057 E18.54614
G1 X61.092 Y164.843 E18.57230
G1 X60.650 Y164.596 E18.59854
G1 X60.226 Y164.319 E18.62479
G1 X59.823 Y164.014 E18.65099
G1 X59.443 Y163.681 E18.67718
G1 X58.946 Y163.166 E18.71426
G1 X58.451 Y162.533 E18.75591
G1 X58.073 Y161.927 E18.79297
G1 X57.722 Y161.209 E18.83438
G1 X57.477 Y160.534 E18.87159
G1 X57.344 Y160.045 E18.89787
G1 X57.247 Y159.552 E18.92392
G1 X57.163 Y158.754 E18.96554
G1 X57.156 Y88.654 E22.59937
G1 X57.184 Y88.149 E22.62562
G1 X57.247 Y87.647 E22.65185
G1 X57.395 Y86.949 E22.68881
G1 X57.542 Y86.464 E22.71507
G1 X60.895 Y77.977 E23.18812
G1 X61.308 Y77.131 E23.23692
G1 X61.834 Y76.289 E23.28840
G1 X62.413 Y75.547 E23.33720
G1 X62.853 Y75.074 E23.37068
G1 X63.280 Y74.674 E23.40101
G1 X63.591 Y74.952 F3600.000
G1 F1200
G1 X64.352 Y74.358 E23.45105
G1 X64.870 Y74.023 E23.48303
G1 X65.650 Y73.608 E23.52882
G1 X66.216 Y73.367 E23.56071
G1 X67.134 Y73.068 E23.61077
G1 X67.736 Y72.931 E23.64275
G1 X68.609 Y72.808 E23.68848
G1 X69.225 Y72.774 E23.72046
G1 X180.774 Y72.774 E29.50298
G1 X181.390 Y72.808 E29.53496
G1 X182.002 Y72.884 E29.56689
G1 X182.605 Y73.003 E29.59879
G1 X183.201 Y73.164 E29.63077
G1 X183.784 Y73.367 E29.66275
G1 X184.349 Y73.608 E29.69463
G1 X184.899 Y73.890 E29.72666
G1 X185.648 Y74.357 E29.77240
G1 X186.141 Y74.727 E29.80437
G1 X186.607 Y75.131 E29.83633
G1 X187.278 Y75.825 E29.88637
G1 X187.664 Y76.304 E29.91827
G1 X188.017 Y76.811 E29.95026
G1 X188.333 Y77.339 E29.98217
G1 X188.611 Y77.889 E30.01415
G1 X188.861 Y78.482 E30.04749
G1 X191.981 Y86.366 E30.48704
G1 X192.202 Y87.050 E30.52426
G1 X192.307 Y87.513 E30.54888
G1 X192.381 Y87.984 E30.57361
G1 X192.422 Y88.460 E30.59835
G1 X192.431 Y158.396 E34.22376
G1 X192.403 Y159.007 E34.25542
G1 X192.344 Y159.480 E34.28015
G1 X192.252 Y159.946 E34.30476
G1 X192.128 Y160.407 E34.32951
G1 X191.971 Y160.859 E34.35433
G1 X191.784 Y161.296 E34.37897
G1 X191.567 Y161.720 E34.40366
G1 X191.204 Y162.301 E34.43917
G1 X190.745 Y162.888 E34.47781
G1 X190.268 Y163.382 E34.51338
G1 X189.910 Y163.695 E34.53807
G1 X189.530 Y163.983 E34.56277
G1 X188.898 Y164.377 E34.60136
G1 X188.475 Y164.592 E34.62595
G1 X188.034 Y164.778 E34.65077
G1 X187.381 Y164.990 E34.68635
G1 X186.917 Y165.099 E34.71110
G1 X186.448 Y165.174 E34.73570
G1 X185.705 Y165.226 E34.77433
G1 X64.295 Y165.226 E41.06799
G1 X63.819 Y165.202 E41.09270
G1 X63.345 Y165.145 E41.11748
G1 X62.619 Y164.990 E41.15596
G1 X62.162 Y164.850 E41.18070
G1 X61.717 Y164.678 E41.20543
G1 X61.287 Y164.476 E41.23009
G1 X60.870 Y164.244 E41.25482
G1 X60.470 Y163.983 E41.27957
G1 X59.930 Y163.561 E41.31511
G1 X59.581 Y163.237 E41.33980
G1 X59.258 Y162.892 E41.36430
G1 X58.796 Y162.301 E41.40317
G1 X58.433 Y161.719 E41.43872
G1 X58.108 Y161.053 E41.47715
G1 X57.872 Y160.406 E41.51284
G1 X57.748 Y159.945 E41.53760
G1 X57.656 Y159.480 E41.56217
G1 X57.578 Y158.739 E41.60078
G1 X57.571 Y88.669 E45.23310
G1 X57.597 Y88.192 E45.25784
G1 X57.656 Y87.719 E45.28258
G1 X57.799 Y87.050 E45.31804
G1 X57.937 Y86.593 E45.34279
G1 X61.280 Y78.133 E45.81434
G1 X61.667 Y77.339 E45.86012
G1 X62.178 Y76.521 E45.91011
G1 X62.722 Y75.825 E45.95590
G1 X63.142 Y75.373 E45.98787
G1 X63.547 Y74.992 E46.01670
G1 X63.859 Y75.270 F3600.000
G1 F1200
G1 X64.596 Y74.694 E46.06524
G1 X65.090 Y74.375 E46.09571
G1 X65.819 Y73.988 E46.13850
G1 X66.358 Y73.757 E46.16889
G1 X67.249 Y73.468 E46.21744
G1 X67.822 Y73.337 E46.24792
G1 X68.638 Y73.223 E46.29064
G1 X69.225 Y73.190 E46.32112
G1 X180.774 Y73.190 E52.10364
G1 X181.361 Y73.223 E52.13411
G1 X181.944 Y73.296 E52.16454
G1 X182.519 Y73.410 E52.19494
G1 X183.087 Y73.564 E52.22542
G1 X183.642 Y73.757 E52.25589
G1 X184.181 Y73.988 E52.28628
G1 X184.704 Y74.257 E52.31679
G1 X185.403 Y74.694 E52.35954
G1 X185.874 Y75.046 E52.39000
G1 X186.318 Y75.430 E52.42045
G1 X186.969 Y76.103 E52.46899
G1 X187.336 Y76.560 E52.49939
G1 X187.672 Y77.043 E52.52987
G1 X187.973 Y77.547 E52.56028
G1 X188.238 Y78.072 E52.59076
G1 X191.595 Y86.519 E53.06198
G1 X191.798 Y87.150 E53.09634
G1 X191.898 Y87.585 E53.11947
G1 X191.968 Y88.028 E53.14269
G1 X192.006 Y88.474 E53.16593
G1 X192.016 Y158.396 E56.79058
G1 X191.990 Y158.963 E56.81999
G1 X191.934 Y159.408 E56.84321
G1 X191.849 Y159.845 E56.86633
G1 X191.732 Y160.278 E56.88958
G1 X191.586 Y160.703 E56.91288
G1 X191.410 Y161.114 E56.93603
G1 X191.207 Y161.512 E56.95921
G1 X190.859 Y162.069 E56.99322
G1 X190.436 Y162.610 E57.02885
G1 X189.980 Y163.083 E57.06292
G1 X189.643 Y163.377 E57.08610
G1 X189.285 Y163.647 E57.10930
G1 X188.703 Y164.010 E57.14489
G1 X188.306 Y164.212 E57.16798
G1 X187.892 Y164.388 E57.19129
G1 X187.267 Y164.591 E57.22536
G1 X186.830 Y164.692 E57.24860
G1 X186.390 Y164.762 E57.27171
G1 X185.705 Y164.810 E57.30733
G1 X64.295 Y164.810 E63.60099
G1 X63.848 Y164.787 E63.62419
G1 X63.403 Y164.733 E63.64746
G1 X62.733 Y164.591 E63.68295
G1 X62.305 Y164.459 E63.70618
G1 X61.887 Y164.298 E63.72941
G1 X61.482 Y164.109 E63.75257
G1 X61.090 Y163.891 E63.77580
G1 X60.715 Y163.647 E63.79903
G1 X60.357 Y163.377 E63.82223
G1 X60.020 Y163.083 E63.84542
G1 X59.564 Y162.610 E63.87949
G1 X59.141 Y162.069 E63.91511
G1 X58.793 Y161.512 E63.94916
G1 X58.493 Y160.897 E63.98460
G1 X58.267 Y160.278 E64.01877
G1 X58.151 Y159.845 E64.04202
G1 X58.066 Y159.408 E64.06510
G1 X57.994 Y158.725 E64.10070
G1 X57.994 Y88.474 E67.74239
G1 X58.032 Y88.027 E67.76563
G1 X58.102 Y87.584 E67.78887
G1 X58.202 Y87.150 E67.81196
G1 X58.405 Y86.519 E67.84632
G1 X61.666 Y78.289 E68.30524
G1 X62.027 Y77.547 E68.34802
G1 X62.523 Y76.754 E68.39651
G1 X63.031 Y76.103 E68.43929
G1 X63.431 Y75.672 E68.46976
G1 X63.814 Y75.310 E68.49709
G1 E67.89709 F900.00000
G92 E0
G1 X178.105 Y117.043 F3600.000
G1 E0.65000 F900.00000
G1 F600
G1 X177.817 Y116.348 E0.68899
G1 X177.719 Y115.602 E0.72797
G1 X177.817 Y114.857 E0.76695
G1 X178.105 Y114.162 E0.80594
G1 X178.563 Y113.565 E0.84492
G1 X179.160 Y113.108 E0.88390
G1 X179.854 Y112.820 E0.92289
G1 X180.555 Y112.728 E0.95953
G1 X181.336 Y112.816 E1.00028
G1 X182.040 Y113.108 E1.03978
G1 X182.637 Y113.565 E1.07876
G1 X183.095 Y114.162 E1.11774
G1 X183.383 Y114.857 E1.15673
G1 X183.481 Y115.602 E1.19571
G1 X183.383 Y116.348 E1.23469
G1 X183.095 Y117.043 E1.27368
G1 X182.637 Y117.639 E1.31266
G1 X182.040 Y118.097 E1.35164
G1 X181.346 Y118.385 E1.39063
G1 X180.600 Y118.483 E1.42961
G1 X179.854 Y118.385 E1.46859
G1 X179.160 Y118.097 E1.50758
G1 X178.563 Y117.639 E1.54656
G1 X178.142 Y117.090 E1.58242
G1 X178.468 Y116.833 F3600.000
G1 F600
G1 X178.222 Y116.239 E1.61574
G1 X178.139 Y115.602 E1.64905
G1 X178.222 Y114.965 E1.68236
G1 X178.468 Y114.372 E1.71567
G1 X178.860 Y113.862 E1.74898
G1 X179.369 Y113.471 E1.78228
G1 X179.963 Y113.225 E1.81560
G1 X180.559 Y113.146 E1.84677
G1 X181.231 Y113.222 E1.88185
G1 X181.831 Y113.471 E1.91547
G1 X182.340 Y113.862 E1.94878
G1 X182.732 Y114.372 E1.98209
G1 X182.978 Y114.965 E2.01540
G1 X183.061 Y115.602 E2.04871
G1 X182.978 Y116.239 E2.08202
G1 X182.732 Y116.833 E2.11533
G1 X182.340 Y117.343 E2.14864
G1 X181.831 Y117.734 E2.18195
G1 X181.237 Y117.980 E2.21526
G1 X180.600 Y118.064 E2.24857
G1 X179.963 Y117.980 E2.28188
G1 X179.369 Y117.734 E2.31519
G1 X178.860 Y117.343 E2.34850
G1 X178.505 Y116.881 E2.37870
G1 X178.831 Y116.624 F3600.000
G1 F600
G1 X178.627 Y116.131 E2.40634
G1 X178.558 Y115.602 E2.43397
G1 X178.627 Y115.074 E2.46161
G1 X178.831 Y114.581 E2.48925
G1 X179.156 Y114.158 E2.51688
G1 X179.579 Y113.834 E2.54452
G1 X180.071 Y113.630 E2.57216
G1 X180.563 Y113.565 E2.59785
G1 X181.127 Y113.629 E2.62726
G1 X181.621 Y113.834 E2.65501
G1 X182.044 Y114.158 E2.68265
G1 X182.369 Y114.581 E2.71028
G1 X182.573 Y115.074 E2.73792
G1 X182.642 Y115.602 E2.76556
G1 X182.573 Y116.131 E2.79320
G1 X182.369 Y116.624 E2.82084
G1 X182.044 Y117.046 E2.84847
G1 X181.621 Y117.371 E2.87611
G1 X181.129 Y117.575 E2.90375
G1 X180.600 Y117.645 E2.93138
G1 X180.071 Y117.575 E2.95902
G1 X179.579 Y117.371 E2.98666
G1 X179.156 Y117.046 E3.01429
G1 X178.868 Y116.671 E3.03882
G1 X178.831 Y116.624 F3600.000
G1 E2.43882 F900.00000
G92 E0
G1 X181.026 Y106.381 F3600.000
G1 E0.65000 F900.00000
G1 F600
G1 X180.445 Y106.140 E0.68263
G1 X179.945 Y105.757 E0.71525
G1 X179.562 Y105.258 E0.74788
G1 X179.321 Y104.676 E0.78050
G1 X179.239 Y104.052 E0.81312
G1 X179.321 Y103.428 E0.84575
G1 X179.562 Y102.847 E0.87837
G1 X179.945 Y102.348 E0.91099
G1 X180.445 Y101.965 E0.94362
G1 X181.026 Y101.724 E0.97625
G1 X181.614 Y101.646 E1.00701
G1 X182.265 Y101.720 E1.04094
G1 X182.855 Y101.965 E1.07407
G1 X183.355 Y102.348 E1.10670
G1 X183.738 Y102.847 E1.13932
G1 X183.979 Y103.428 E1.17195
G1 X184.061 Y104.052 E1.20457
G1 X183.979 Y104.676 E1.23719
G1 X183.738 Y105.258 E1.26982
G1 X183.355 Y105.757 E1.30245
G1 X182.855 Y106.140 E1.33507
G1 X182.274 Y106.381 E1.36769
G1 X181.650 Y106.463 E1.40032
G1 X181.086 Y106.389 E1.42983
G1 X181.135 Y105.976 F3600.000
G1 F600
G1 X180.654 Y105.777 E1.45678
G1 X180.242 Y105.461 E1.48374
G1 X179.925 Y105.048 E1.51068
G1 X179.726 Y104.568 E1.53764
G1 X179.658 Y104.052 E1.56459
G1 X179.726 Y103.537 E1.59154
G1 X179.925 Y103.057 E1.61849
G1 X180.242 Y102.644 E1.64544
G1 X180.654 Y102.328 E1.67239
G1 X181.135 Y102.129 E1.69934
G1 X181.618 Y102.065 E1.72463
G1 X182.160 Y102.126 E1.75289
G1 X182.646 Y102.328 E1.78015
G1 X183.058 Y102.644 E1.80710
G1 X183.375 Y103.057 E1.83406
G1 X183.574 Y103.537 E1.86101
G1 X183.642 Y104.052 E1.88796
G1 X183.574 Y104.568 E1.91491
G1 X183.375 Y105.048 E1.94186
G1 X183.058 Y105.461 E1.96881
G1 X182.646 Y105.777 E1.99577
G1 X182.165 Y105.976 E2.02271
G1 X181.650 Y106.044 E2.04967
G1 X181.194 Y105.984 E2.07351
G1 X181.243 Y105.571 F3600.000
G1 F600
G1 X180.864 Y105.414 E2.09479
G1 X180.538 Y105.164 E2.11607
G1 X180.288 Y104.839 E2.13734
G1 X180.131 Y104.459 E2.15862
G1 X180.078 Y104.052 E2.17990
G1 X180.131 Y103.645 E2.20118
G1 X180.288 Y103.266 E2.22245
G1 X180.538 Y102.941 E2.24373
G1 X180.864 Y102.691 E2.26501
G1 X181.243 Y102.534 E2.28629
G1 X181.622 Y102.484 E2.30610
G1 X182.055 Y102.533 E2.32869
G1 X182.436 Y102.691 E2.35008
G1 X182.762 Y102.941 E2.37136
G1 X183.012 Y103.266 E2.39264
G1 X183.169 Y103.645 E2.41392
G1 X183.222 Y104.052 E2.43520
G1 X183.169 Y104.459 E2.45647
G1 X183.012 Y104.839 E2.47775
G1 X182.762 Y105.164 E2.49903
G1 X182.436 Y105.414 E2.52031
G1 X182.057 Y105.571 E2.54159
G1 X181.650 Y105.625 E2.56287
G1 X181.303 Y105.579 E2.58103
G1 X181.243 Y105.571 F3600.000
G1 E1.98103 F900.00000
G92 E0
G1 X180.600 Y84.483 F3600.000
G1 E0.65000 F900.00000
G1 F600
G1 X179.854 Y84.385 E0.68898
G1 X179.160 Y84.097 E0.72797
G1 X178.563 Y83.639 E0.76695
G1 X178.105 Y83.043 E0.80593
G1 X177.817 Y82.348 E0.84492
G1 X177.719 Y81.602 E0.88390
G1 X177.817 Y80.857 E0.92288
G1 X178.105 Y80.162 E0.96187
G1 X178.563 Y79.565 E1.00085
G1 X179.160 Y79.108 E1.03982
G1 X179.854 Y78.820 E1.07881
G1 X180.555 Y78.728 E1.11546
G1 X181.336 Y78.816 E1.15621
G1 X182.040 Y79.108 E1.19571
G1 X182.637 Y79.565 E1.23469
G1 X183.095 Y80.162 E1.27367
G1 X183.383 Y80.857 E1.31265
G1 X183.481 Y81.602 E1.35164
G1 X183.383 Y82.348 E1.39062
G1 X183.095 Y83.043 E1.42961
G1 X182.637 Y83.639 E1.46858
G1 X182.040 Y84.097 E1.50756
G1 X181.346 Y84.385 E1.54655
G1 X180.659 Y84.475 E1.58242
G1 X180.600 Y84.064 F3600.000
G1 F600
G1 X179.963 Y83.980 E1.61573
G1 X179.369 Y83.734 E1.64905
G1 X178.860 Y83.343 E1.68235
G1 X178.468 Y82.833 E1.71566
G1 X178.222 Y82.239 E1.74897
G1 X178.139 Y81.602 E1.78228
G1 X178.222 Y80.965 E1.81559
G1 X178.468 Y80.372 E1.84891
G1 X178.860 Y79.862 E1.88221
G1 X179.369 Y79.471 E1.91552
G1 X179.963 Y79.225 E1.94883
G1 X180.559 Y79.146 E1.98000
G1 X181.231 Y79.222 E2.01508
G1 X181.831 Y79.471 E2.04871
G1 X182.340 Y79.862 E2.08202
G1 X182.732 Y80.372 E2.11532
G1 X182.978 Y80.965 E2.14864
G1 X183.061 Y81.602 E2.18195
G1 X182.978 Y82.239 E2.21526
G1 X182.732 Y82.833 E2.24857
G1 X182.340 Y83.343 E2.28188
G1 X181.831 Y83.734 E2.31518
G1 X181.237 Y83.980 E2.34850
G1 X180.659 Y84.056 E2.37870
G1 X180.600 Y83.645 F3600.000
G1 F600
G1 X180.071 Y83.575 E2.40633
G1 X179.579 Y83.371 E2.43397
G1 X179.156 Y83.046 E2.46161
G1 X178.831 Y82.624 E2.48924
G1 X178.627 Y82.131 E2.51688
G1 X178.558 Y81.602 E2.54452
G1 X178.627 Y81.074 E2.57215
G1 X178.831 Y80.581 E2.59979
G1 X179.156 Y80.158 E2.62743
G1 X179.579 Y79.834 E2.65506
G1 X180.071 Y79.630 E2.68271
G1 X180.563 Y79.565 E2.70840
G1 X181.127 Y79.629 E2.73780
G1 X181.621 Y79.834 E2.76556
G1 X182.044 Y80.158 E2.79319
G1 X182.369 Y80.581 E2.82083
G1 X182.573 Y81.074 E2.84847
G1 X182.642 Y81.602 E2.87611
G1 X182.573 Y82.131 E2.90374
G1 X182.369 Y82.624 E2.93138
G1 X182.044 Y83.046 E2.95902
G1 X181.621 Y83.371 E2.98665
G1 X181.129 Y83.575 E3.01429
G1 X180.659 Y83.637 E3.03882
G1 X180.600 Y83.645 F3600.000
G1 E2.43882 F900.00000
G92 E0
G1 X105.229 Y103.428 F3600.000
G1 E0.65000 F900.00000
G1 F600
G1 X105.311 Y104.052 E0.68262
G1 X105.229 Y104.676 E0.71524
G1 X104.988 Y105.258 E0.74787
G1 X104.605 Y105.757 E0.78049
G1 X104.105 Y106.140 E0.81312
G1 X103.524 Y106.381 E0.84574
G1 X102.900 Y106.463 E0.87837
G1 X102.276 Y106.381 E0.91099
G1 X101.695 Y106.140 E0.94361
G1 X101.195 Y105.757 E0.97624
G1 X100.812 Y105.258 E1.00886
G1 X100.571 Y104.676 E1.04149
G1 X100.489 Y104.052 E1.07411
G1 X100.571 Y103.428 E1.10673
G1 X100.812 Y102.847 E1.13936
G1 X101.195 Y102.348 E1.17199
G1 X101.695 Y101.965 E1.20461
G1 X102.276 Y101.724 E1.23723
G1 X102.864 Y101.646 E1.26799
G1 X103.515 Y101.720 E1.30193
G1 X104.105 Y101.965 E1.33506
G1 X104.605 Y102.348 E1.36769
G1 X104.988 Y102.847 E1.40031
G1 X105.206 Y103.373 E1.42983
G1 X104.824 Y103.537 F3600.000
G1 F600
G1 X104.892 Y104.052 E1.45678
